X: 100435
T: WINCHBURGH CASTLE -- Strathspey
C: By Wm. Findlay, Broxburn
R: strathspey
B: K\"ohler's Violin Repository, v.3, 1885 p.276 #1
F: http://www.archive.org/details/klersviolinrepos03rugg
Z: 2012 John Chambers <jc:trillian.mit.edu>
M: C
L: 1/8
K: D
uA, !segno!|\
D<D(F>E) (D/E/F/G/) A<F | (G>B)(F>A) E/F/G/A/ B/c/d/e/ |\
f>(de)>(c d)>vB(A>F) | (3GAB (3ABc d<DD>A, |
D<D(F>E) (D/E/F/G/) A<F | (G>B)(F>A) (E>F)(.G>.g) |\
(3fed (3cde (.d>.B)(A>F) | (3GAB (3ABc d2 (d |]| f) |
d<d (f/g/a) (d>a)f>a | (.g>.e)(c>B) (3ABc (3efg |\
f<df<a (.b>.g)(e>d) | (3cde (3ABc d2 (d<f) |
d<d (f/g/a) (d>a)f>a | (.g>.e)(c>B) (3ABc (3efg |\
(3fdf (3ece (.d>.B)(A>F) | (3GAB (3ABc d2 d2 & x4 (3dAG (3FGE !segno!|]

%%sep 2 1 500

